svgs/sharp-light/gamepad-modern.svg

<svg xmlns="http://www.w3.org/2000/svg" viewBox="0 0 640 512"><!--! Font Awesome Pro 6.6.0 by @fontawesome - https://fontawesome.com License - https://fontawesome.com/license (Commercial License) Copyright 2024 Fonticons, Inc. --><path d="M440 480l-16-96-208 0-16 96L32.2 480 0 480l3.6-32L42.8 96 160 32l160 0 160 0L597.2 96l39.2 352 3.6 32-32.2 0L440 480zM184.4 378.7l4.5-26.7 27.1 0 208 0 27.1 0 4.5 26.7L467.1 448l137.1 0-37-331.9L471.8 64 320 64 168.2 64 72.8 116.1 35.8 448l137.1 0 11.5-69.3zM208 160l0 48 48 0 16 0 0 32-16 0-48 0 0 48 0 16-32 0 0-16 0-48-48 0-16 0 0-32 16 0 48 0 0-48 0-16 32 0 0 16zM408 272a24 24 0 1 1 48 0 24 24 0 1 1 -48 0zm88-120a24 24 0 1 1 0 48 24 24 0 1 1 0-48z"/></svg>

<svg xmlns="http://www.w3.org/2000/svg" viewBox="0 0 640 512"><!--! Font Awesome Pro 6.4.0 by @fontawesome - https://fontawesome.com License - https://fontawesome.com/license (Commercial License) Copyright 2023 Fonticons, Inc. --><path d="M440 480l-16-96H216l-16 96H32.2 0l3.6-32L42.8 96 160 32H320 480L597.2 96l39.2 352 3.6 32H607.8 440zM184.4 378.7l4.5-26.7H216 424h27.1l4.5 26.7L467.1 448H604.2l-37-331.9L471.8 64H320 168.2L72.8 116.1 35.8 448H172.9l11.5-69.3zM208 160v48h48 16v32H256 208v48 16H176V288 240H128 112V208h16 48V160 144h32v16zM408 272a24 24 0 1 1 48 0 24 24 0 1 1 -48 0zm88-120a24 24 0 1 1 0 48 24 24 0 1 1 0-48z"/></svg>
